Yosa-Max/places/16x16/folder-github.svg

<?xml version="1.0" encoding="UTF-8"?>
<svg id="svg6" version="1.1" viewBox="0 0 16 16" xmlns="http://www.w3.org/2000/svg">
 <defs id="defs3051">
  <style id="current-color-scheme" type="text/css">.ColorScheme-Text {
        color:#4d4d4d;
      }</style>
 </defs>
 <path id="circle862" d="m8 0a8 8 0 0 0-8 8 8 8 0 0 0 8 8 8 8 0 0 0 8-8 8 8 0 0 0-8-8zm3.080078 4.0078125c0.102411-0.014064 0.188986-0.0093631 0.259766 0.0136719 0.227493 0.5782462 0.247611 1.1008365 0.060547 1.5664062 0.399415 0.4349647 0.599609 0.9628939 0.599609 1.5820313 0 0.4349557-0.052757 0.8190975-0.15625 1.1542969-0.103686 0.3352768-0.236102 0.6025155-0.400391 0.8046874-0.164381 0.202171-0.370056 0.3736108-0.615234 0.5117188-0.245263 0.138201-0.482891 0.2373981-0.712891 0.2988281-0.2300944 0.0614299-0.4891653 0.1079519-0.7773434 0.1386719 0.2628643 0.230245 0.3925782 0.593466 0.3925782 1.089844v1.61914c0 0.01628 0.0077656 0.029602 0.0097656 0.044922a6.6563216 6.5721644 0 0 1-1.4570313 0.167969 6.6563216 6.5721644 0 0 1-1.4511719-0.164062c0.0025301-0.016891 0.0097657-0.030749 0.0097657-0.048829 0-0.015395-0.0015763-0.153102-0.0039063-0.414062-0.00233-0.261045-0.0039062-0.489331-0.0039062-0.683594l-0.1738282 0.029297c-0.111229 0.02067-0.2524682 0.029844-0.421875 0.027344-0.169314-0.00238-0.3434236-0.019355-0.5253906-0.052735-0.182065-0.033141-0.3530197-0.110257-0.5097656-0.230468-0.1566532-0.120303-0.2663113-0.278309-0.3320312-0.472657l-0.0761719-0.175781c-0.0505658-0.117569-0.1315141-0.247431-0.2402344-0.390625-0.1087202-0.143291-0.2168881-0.241819-0.328125-0.292969l-0.0527344-0.039062c-0.035388-0.02563-0.0692554-0.054044-0.0996093-0.089844-0.030354-0.0357929-0.0531824-0.0715218-0.0683594-0.1074218-0.015177-0.0357899-0.0030786-0.0667337 0.0371094-0.0898437 0.0404996-0.02306 0.1164449-0.0351563 0.2226562-0.0351563l0.1503906 0.0253907c0.101085 0.020481 0.2257885 0.0811957 0.375 0.1835937 0.1491109 0.1023134 0.2711281 0.2347964 0.3671875 0.3984374 0.1163554 0.209893 0.2574936 0.36848 0.421875 0.478516 0.1642883 0.110036 0.3292966 0.166015 0.4960938 0.166015 0.166805 0 0.3122127-0.013582 0.4335937-0.039062 0.121288-0.025555 0.2336402-0.064115 0.3398438-0.115234 0.0455325-0.342916 0.1689159-0.604883 0.3710937-0.789063-0.288178-0.030709-0.5472425-0.077372-0.7773437-0.1386719-0.2300005-0.061429-0.4657672-0.1605321-0.7109375-0.2988281-0.245271-0.138108-0.4495566-0.310999-0.6113281-0.515625-0.1617795-0.204711-0.2948435-0.4721302-0.3984376-0.8046875-0.1036014-0.3326518-0.15625-0.7154349-0.15625-1.1503906 0-0.6192309 0.2001944-1.1470748 0.5996094-1.5820313-0.1870934-0.4655697-0.1677704-0.9881601 0.0546875-1.5664062 0.1466019-0.0460331 0.3622125-0.0115991 0.6503907 0.1035156 0.2881781 0.115123 0.5007316 0.2131487 0.6347656 0.2949219 0.134034 0.0817734 0.2413763 0.1507906 0.3222656 0.2070312 0.4702458-0.1330185 0.9545857-0.1992187 1.4550781-0.1992187 0.5005001 0 0.9866998 0.0661898 1.4570313 0.1992187l0.2871096-0.1835937c0.197051-0.1228436 0.431422-0.2355776 0.699218-0.3378906 0.133987-0.0511571 0.251105-0.0835833 0.353516-0.0976563z" style="fill:#4d4d4d"/>
</svg>

<?xml version="1.0" encoding="UTF-8" standalone="no"?>
<svg
   xmlns:dc="http://purl.org/dc/elements/1.1/"
   xmlns:cc="http://creativecommons.org/ns#"
   xmlns:rdf="http://www.w3.org/1999/02/22-rdf-syntax-ns#"
   xmlns:svg="http://www.w3.org/2000/svg"
   xmlns="http://www.w3.org/2000/svg"
   xmlns:sodipodi="http://sodipodi.sourceforge.net/DTD/sodipodi-0.dtd"
   xmlns:inkscape="http://www.inkscape.org/namespaces/inkscape"
   viewBox="0 0 16 16"
   version="1.1"
   id="svg6"
   sodipodi:docname="folder-github.svg"
   inkscape:version="0.92.4 (unknown)">
  <metadata
     id="metadata10">
    <rdf:RDF>
      <cc:Work
         rdf:about="">
        <dc:format>image/svg+xml</dc:format>
        <dc:type
           rdf:resource="http://purl.org/dc/dcmitype/StillImage" />
        <dc:title></dc:title>
      </cc:Work>
    </rdf:RDF>
  </metadata>
  <sodipodi:namedview
     pagecolor="#ffffff"
     bordercolor="#666666"
     borderopacity="1"
     objecttolerance="10"
     gridtolerance="10"
     guidetolerance="10"
     inkscape:pageopacity="0"
     inkscape:pageshadow="2"
     inkscape:window-width="1366"
     inkscape:window-height="709"
     id="namedview8"
     showgrid="false"
     inkscape:zoom="31.8125"
     inkscape:cx="8"
     inkscape:cy="8"
     inkscape:window-x="0"
     inkscape:window-y="0"
     inkscape:window-maximized="1"
     inkscape:current-layer="svg6" />
  <defs
     id="defs3051">
    <style
       type="text/css"
       id="current-color-scheme">
      .ColorScheme-Text {
        color:#4d4d4d;
      }
      </style>
  </defs>
  <path
     style="opacity:1;vector-effect:none;fill:#4d4d4d;fill-opacity:1;stroke:none;stroke-width:1.10652173;stroke-linecap:butt;stroke-linejoin:miter;stroke-miterlimit:4;stroke-dasharray:none;stroke-dashoffset:0;stroke-opacity:1"
     d="M 8 0 A 8 8 0 0 0 0 8 A 8 8 0 0 0 8 16 A 8 8 0 0 0 16 8 A 8 8 0 0 0 8 0 z M 11.080078 4.0078125 C 11.182489 3.9937485 11.269064 3.9984494 11.339844 4.0214844 C 11.567337 4.5997306 11.587455 5.1223209 11.400391 5.5878906 C 11.799806 6.0228553 12 6.5507845 12 7.1699219 C 12 7.6048776 11.947243 7.9890194 11.84375 8.3242188 C 11.740064 8.6594956 11.607648 8.9267343 11.443359 9.1289062 C 11.278978 9.3310772 11.073303 9.502517 10.828125 9.640625 C 10.582862 9.778826 10.345234 9.8780231 10.115234 9.9394531 C 9.8851396 10.000883 9.6260687 10.047405 9.3378906 10.078125 C 9.6007549 10.30837 9.7304688 10.671591 9.7304688 11.167969 L 9.7304688 12.787109 C 9.7304688 12.803389 9.7382344 12.816711 9.7402344 12.832031 A 6.6563216 6.5721644 0 0 1 8.2832031 13 A 6.6563216 6.5721644 0 0 1 6.8320312 12.835938 C 6.8345613 12.819047 6.8417969 12.805189 6.8417969 12.787109 C 6.8417969 12.771714 6.8402206 12.634007 6.8378906 12.373047 C 6.8355606 12.112002 6.8339844 11.883716 6.8339844 11.689453 L 6.6601562 11.71875 C 6.5489272 11.73942 6.407688 11.748594 6.2382812 11.746094 C 6.0689672 11.743714 5.8948576 11.726739 5.7128906 11.693359 C 5.5308256 11.660218 5.3598709 11.583102 5.203125 11.462891 C 5.0464718 11.342588 4.9368137 11.184582 4.8710938 10.990234 L 4.7949219 10.814453 C 4.7443561 10.696884 4.6634078 10.567022 4.5546875 10.423828 C 4.4459673 10.280537 4.3377994 10.182009 4.2265625 10.130859 L 4.1738281 10.091797 C 4.1384401 10.066167 4.1045727 10.037753 4.0742188 10.001953 C 4.0438648 9.9661601 4.0210364 9.9304312 4.0058594 9.8945312 C 3.9906824 9.8587413 4.0027808 9.8277975 4.0429688 9.8046875 C 4.0834684 9.7816275 4.1594137 9.7695312 4.265625 9.7695312 L 4.4160156 9.7949219 C 4.5171006 9.8154029 4.6418041 9.8761176 4.7910156 9.9785156 C 4.9401265 10.080829 5.0621437 10.213312 5.1582031 10.376953 C 5.2745585 10.586846 5.4156967 10.745433 5.5800781 10.855469 C 5.7443664 10.965505 5.9093747 11.021484 6.0761719 11.021484 C 6.2429769 11.021484 6.3883846 11.007902 6.5097656 10.982422 C 6.6310536 10.956867 6.7434058 10.918307 6.8496094 10.867188 C 6.8951419 10.524272 7.0185253 10.262305 7.2207031 10.078125 C 6.9325251 10.047416 6.6734606 10.000753 6.4433594 9.9394531 C 6.2133589 9.8780241 5.9775922 9.778921 5.7324219 9.640625 C 5.4871509 9.502517 5.2828653 9.329626 5.1210938 9.125 C 4.9593143 8.920289 4.8262503 8.6528698 4.7226562 8.3203125 C 4.6190548 7.9876607 4.5664062 7.6048776 4.5664062 7.1699219 C 4.5664062 6.550691 4.7666006 6.0228471 5.1660156 5.5878906 C 4.9789222 5.1223209 4.9982452 4.5997305 5.2207031 4.0214844 C 5.367305 3.9754513 5.5829156 4.0098853 5.8710938 4.125 C 6.1592719 4.240123 6.3718254 4.3381487 6.5058594 4.4199219 C 6.6398934 4.5016953 6.7472357 4.5707125 6.828125 4.6269531 C 7.2983708 4.4939346 7.7827107 4.4277344 8.2832031 4.4277344 C 8.7837032 4.4277344 9.2699029 4.4939242 9.7402344 4.6269531 L 10.027344 4.4433594 C 10.224395 4.3205158 10.458766 4.2077818 10.726562 4.1054688 C 10.860549 4.0543117 10.977667 4.0218855 11.080078 4.0078125 z "
     id="circle862" />
</svg>
